X:1
T:In a Little While We’re Going Home
T:Eliza Edmunds Hewitt, 1899
T:In a Little While We’re Going Home
T:Public Domain
T:Public Domain
C:Eliza Edmunds Hewitt, 1899
Z:Public Domain
%%score ( 1 2 ) ( 3 4 )
L:1/8
M:4/4
K:Eb
V:1 treble 
V:2 treble 
V:3 bass 
V:4 bass 
V:1
 B,[B,E] | [EG]2 [EG]2 [EG]2 [B,F][B,E] | [EG][B,E][B,E][A,C] B,2 [B,E][B,F] | %3
w: 1.~Let us|sing a song that will|cheer us by the way, In a|
w: 2.~We will|do the work that our|hands may find to do, In a|
w: 3.~We will|smooth the path for some|wea- ry, way- worn feet, In a|
w: 4.~There’s a|rest be- yond, there’s re-|lief from ev- ery care, In a|
 [EG][EB][EB][Ec] [EB]2 [EG]2 | [DF]6 [DF][EG] | [FA]2 [FA]2 [FA]2 [EG][DF] | %6
w: tle while we’re go- ing home;|For the night|will end in the ev-|
w: tle while we’re go- ing home;|And the grace|of God will our dai-|
w: tle while we’re go- ing home;|And may lov-|ing hearts spread a- round|
w: tle while we’re go- ing home;|And no tears|shall fall in that ci-|
 [EG][EG][EG][EG] [EG]2 [B,F][B,E] | [CF][CF][CF][CF] [B,E]2 [B,D]2 | [B,E]6 ||"^Refrain" EE | %10
w: er- last- ing day, In a lit-|tle while we’re go- ing home.|||
w: ly strength re- new, In a lit-|tle while we’re go- ing home.|In|a lit-|
w: an in- fluence sweet! In a lit-|tle while we’re go- ing home.|||
w: ty bright and fair, In a lit-|tle while we’re go- ing home.|||
 [B,D][DF](DD D2) FF | [B,E][EG](EE E2) [EG][EA] | [EB]3 [EB] [DA]2 [EG]2 | [DF]6 [EG][EA] | %14
w: ||||
w: tle while, In * * a lit-|while, We shall * * cross the|low’s foam; We shall|meet at last,|
w: ||||
w: ||||
 [EB]2 [EB]2 [EB]2 [EA][EG] | [Ec][Ec][Ec][Ec] [Ee]2 E[EF] | [EG][EB][EB][EA] [EG]2 [DF]2 | %17
w: |||
w: When the storm- y winds|are past, In a lit- tle while|go- ing home. * * *|
w: |||
w: |||
 [B,E]6 |] %18
w: |
w: |
w: |
w: |
V:2
 x2 | x8 | x4 B,2 x2 | x8 | x8 | x8 | x8 | x8 | x6 || x2 | x2 F4 x2 | x2 G4 x2 | x8 | x8 | x8 | %15
w: ||lit-|||||||||||||
w: ||lit-||||||||tle|bil-||||
w: ||lit-|||||||||||||
w: ||lit-|||||||||||||
 x6 E x | x8 | x6 |] %18
w: |||
w: we’re|||
w: |||
w: |||
V:3
 [E,G,][E,G,] | [E,B,]2 [E,B,]2 [E,B,]2 [E,A,][E,G,] | %2
w: ~ ~|~ ~ ~ ~ ~|
 [E,B,][E,G,][E,G,][E,A,] [E,G,]2 [E,G,][E,A,] | [E,B,][E,G,][E,G,][E,A,] [E,G,]2 [E,B,]2 | %4
w: ~ ~ ~ ~ ~ ~ ~|~ ~ ~ ~ ~ ~|
 [B,,B,]6 [B,,B,][B,,B,] | [B,,B,]2 [B,,B,]2 [B,,B,]2 [B,,B,][B,,B,] | %6
w: ~ ~ ~|~ ~ ~ ~ ~|
 [E,B,][E,B,][E,B,][E,B,] [E,B,]2 [E,A,][E,G,] | [A,,A,][A,,A,][A,,A,][A,,A,] [B,,G,]2 [B,,F,]2 | %8
w: ~ ~ ~ ~ ~ ~ ~|~ ~ ~ ~ ~ ~|
 [E,G,]6 || G,G, | [B,,F,][B,,A,]B,,B,, B,,2 A,A, | [E,G,][E,B,]E,E, E,2 [E,B,][F,B,] | %12
w: ~|~ ~|In a lit- tle while, ~ ~|a lit- tle while, * * *|
 [G,B,]3 [G,B,] [F,B,]2 [E,B,]2 | [B,,B,]6 [E,B,][E,A,] | [E,G,]2 [E,G,]2 [E,G,]2 [E,C][E,B,] | %15
w: |||
 [A,,A,][A,,A,][A,,A,][A,,A,] [A,,C]2 [=A,,C][A,,C] | %16
w: |
 [B,,B,][B,,G,][B,,G,][B,,C] [B,,B,]2 [B,,A,]2 | [E,G,]6 |] %18
w: ||
V:4
 x2 | x8 | x8 | x8 | x8 | x8 | x8 | x8 | x6 || x2 | x2 A,4 x2 | x2 B,4 x2 | x8 | x8 | x8 | x8 | %16
w: ||||||||||In||||||
 x8 | x6 |] %18
w: ||

